img/svg/search.svg

<?xml version="1.0" encoding="utf-8"?><!DOCTYPE svg PUBLIC "-//W3C//DTD SVG 1.1//EN" "http://www.w3.org/Graphics/SVG/1.1/DTD/svg11.dtd"><svg version="1.1" baseProfile="full" xmlns="http://www.w3.org/2000/svg" xmlns:xlink="http://www.w3.org/1999/xlink" xmlns:ev="http://www.w3.org/2001/xml-events"   height="41px"   width="41px" ><path fill="rgb( 0, 0, 0 )" d="M13.6279999999999,6.25 C19.413,0.46599999999989 28.826,0.46599999999989 34.6110000000001,6.25 C40.393,12.0349999999999 40.393,21.4470000000001 34.6110000000001,27.232 C29.4590000000001,32.3820000000001 21.4369999999999,32.933 15.6569999999999,28.9119999999998 C15.5340000000001,29.4870000000001 15.2550000000001,30.0360000000001 14.8099999999999,30.4839999999999 C14.8099999999999,30.4839999999999 6.38499999999999,38.9050000000002 6.38499999999999,38.9050000000002 C5.15900000000011,40.1309999999999 3.17599999999993,40.1309999999999 1.95299999999997,38.9050000000002 C0.72800000000007,37.681 0.72800000000007,35.6979999999999 1.95299999999997,34.473 C1.95299999999997,34.473 10.377,26.049 10.377,26.049 C10.8230000000001,25.6039999999998 11.3720000000001,25.3249999999998 11.9480000000001,25.2049999999999 C7.92399999999998,19.422 8.47700000000009,11.4029999999998 13.6279999999999,6.25 ZM16.287,24.5729999999999 C20.606,28.8899999999999 27.633,28.8899999999999 31.951,24.5729999999999 C36.2670000000001,20.2539999999999 36.2670000000001,13.2289999999998 31.951,8.91100000000006 C27.633,4.59299999999985 20.606,4.59299999999985 16.287,8.91100000000006 C11.9690000000001,13.2289999999998 11.9690000000001,20.2539999999999 16.287,24.5729999999999 Z "/></svg>

<svg baseProfile="full" xmlns="http://www.w3.org/2000/svg" height="41" width="41"><path fill="rgb( 0, 0, 0 )" d="M13.628 6.25c5.785-5.784 15.198-5.784 20.983 0 5.782 5.785 5.782 15.197 0 20.982-5.152 5.15-13.174 5.701-18.954 1.68-.123.575-.402 1.124-.847 1.572l-8.425 8.421c-1.226 1.226-3.209 1.226-4.432 0-1.225-1.224-1.225-3.207 0-4.432l8.424-8.424c.446-.445.995-.724 1.571-.844-4.024-5.783-3.471-13.802 1.68-18.955zm2.659 18.323c4.319 4.317 11.346 4.317 15.664 0 4.316-4.319 4.316-11.344 0-15.662-4.318-4.318-11.345-4.318-15.664 0-4.318 4.318-4.318 11.343 0 15.662z"/></svg>
